kora/actions/scalable/help-about.svg

<svg xmlns="http://www.w3.org/2000/svg" style="fill-rule:evenodd;clip-rule:evenodd;stroke-linejoin:round;stroke-miterlimit:2" width="100%" height="100%" version="1.1" viewBox="0 0 16 16" xml:space="preserve">
 <defs>
  <style id="current-color-scheme" type="text/css">
   .ColorScheme-Text { color:#dfdfdf; } .ColorScheme-Highlight { color:#4285f4; } .ColorScheme-NeutralText { color:#ff9800; } .ColorScheme-PositiveText { color:#4caf50; } .ColorScheme-NegativeText { color:#f44336; }
  </style>
 </defs>
 <path style="fill:currentColor;fill-opacity:0.5" class="ColorScheme-Text" d="M8,1c-3.84,0 -7,3.16 -7,7c0,3.84 3.16,7 7,7c3.84,0 7,-3.16 7,-7c0,-3.84 -3.16,-7 -7,-7Zm0,0.8c3.401,0 6.2,2.799 6.2,6.2c0,3.401 -2.799,6.2 -6.2,6.2c-3.401,0 -6.2,-2.799 -6.2,-6.2c0,-3.401 2.799,-6.2 6.2,-6.2Z"/>
 <path style="fill:currentColor;" class="ColorScheme-Text" d="M9,7l-2,0l0,5l2,0l0,-5Zm-1,-3.25c0.686,0 1.25,0.564 1.25,1.25c0,0.686 -0.564,1.25 -1.25,1.25c-0.686,0 -1.25,-0.564 -1.25,-1.25c0,-0.686 0.564,-1.25 1.25,-1.25Z"/>
</svg>

<svg xmlns="http://www.w3.org/2000/svg" width="16" height="16" version="1.1">
 <defs>
  <style id="current-color-scheme" type="text/css">
   .ColorScheme-Text { color:#dfdfdf; } .ColorScheme-Highlight { color:#4285f4; }
  </style>
 </defs>
 <path style="fill:currentColor" class="ColorScheme-Text" d="M 8 1 A 7 7 0 0 0 1 8 A 7 7 0 0 0 8 15 A 7 7 0 0 0 15 8 A 7 7 0 0 0 8 1 z M 8 3.75 A 1.25 1.25 0 0 1 9.25 5 A 1.25 1.25 0 0 1 8 6.25 A 1.25 1.25 0 0 1 6.75 5 A 1.25 1.25 0 0 1 8 3.75 z M 7 7 L 9 7 L 9 12 L 7 12 L 7 7 z"/>
</svg>
